Numix/scalable/actions/document-send-symbolic.svg

<?xml version="1.0" encoding="UTF-8" standalone="no"?>
<svg
   xmlns:dc="http://purl.org/dc/elements/1.1/"
   xmlns:cc="http://creativecommons.org/ns#"
   xmlns:rdf="http://www.w3.org/1999/02/22-rdf-syntax-ns#"
   xmlns:svg="http://www.w3.org/2000/svg"
   xmlns="http://www.w3.org/2000/svg"
   xmlns:sodipodi="http://sodipodi.sourceforge.net/DTD/sodipodi-0.dtd"
   xmlns:inkscape="http://www.inkscape.org/namespaces/inkscape"
   viewBox="0 0 16 16.0123"
   id="svg2237"
   version="1.1"
   inkscape:version="0.91 r"
   sodipodi:docname="document-send-symbolic.svg">
  <metadata
     id="metadata2251">
    <rdf:RDF>
      <cc:Work
         rdf:about="">
        <dc:format>image/svg+xml</dc:format>
        <dc:type
           rdf:resource="http://purl.org/dc/dcmitype/StillImage" />
      </cc:Work>
    </rdf:RDF>
  </metadata>
  <defs
     id="defs2249" />
  <sodipodi:namedview
     pagecolor="#ffffff"
     bordercolor="#666666"
     borderopacity="1"
     objecttolerance="10"
     gridtolerance="10"
     guidetolerance="10"
     inkscape:pageopacity="0"
     inkscape:pageshadow="2"
     inkscape:window-width="1920"
     inkscape:window-height="1056"
     id="namedview2247"
     showgrid="true"
     showguides="false"
     inkscape:zoom="29.477338"
     inkscape:cx="12.617687"
     inkscape:cy="6.0406053"
     inkscape:window-x="0"
     inkscape:window-y="24"
     inkscape:window-maximized="1"
     inkscape:current-layer="svg2237">
    <inkscape:grid
       type="xygrid"
       id="grid4136" />
  </sodipodi:namedview>
  <g
     transform="matrix(1 0 0 .99837 0 -.0313)"
     id="g2243">
    <rect
       width="16"
       x="0"
       y=".031"
       height="16"
       style="fill-opacity:0"
       id="rect2245" />
  </g>
  <path
     style="opacity:1;fill:#bebebe;fill-opacity:1;fill-rule:nonzero;stroke:none;stroke-width:2;stroke-linecap:butt;stroke-linejoin:miter;stroke-miterlimit:4;stroke-dasharray:none;stroke-dashoffset:0;stroke-opacity:1"
     d="M 2 1.0117188 L 2 15.011719 L 14 15.011719 L 14 1.0117188 L 2 1.0117188 z M 8 3 L 12.242188 7.2421875 L 10.828125 8.65625 L 9 6.828125 L 9 13.011719 L 7 13.011719 L 7 6.828125 L 5.171875 8.65625 L 3.7578125 7.2421875 L 8 3 z "
     id="rect4138" />
</svg>

<svg xmlns="http://www.w3.org/2000/svg" viewBox="0 0 16 16.0123">
 <g transform="matrix(1 0 0 .99837 0 -.0313)">
  <rect width="16" y="0.031" height="16" style="fill-opacity:0"/>
 </g>
 <path d="m 2 1.012 l 0 14 l 12 0 l 0 -14 l -12 0 z m 6 1.988 l 4.242 4.242 l -1.414 1.414 l -1.828 -1.828 l 0 6.184 l -2 0 l 0 -6.184 l -1.828 1.828 l -1.414 -1.414 l 4.242 -4.242 z" style="fill:#bebebe;opacity:1;fill-opacity:1;stroke:none;fill-rule:nonzero"/>
</svg>
